X: 18769
T: If I Had A Wife
R: slide
M: 12/8
K: Gmajor
B2A ABd e2d d2B|AGA B2A G2D D2A|
B2A ABd e2d d2B|1 AGA B2A G3 G2A:|2 AGA B2A G3 gfe||
|:d2g gfg age dBd|e2a aba g2a bge|
d2g gfg age dBd|1 efg aba g3 gfe:|2 efg aba g3 G2A||

